plasma/desktoptheme/WhiteSur-alt/widgets/action-overlays.svg

<?xml version="1.0" encoding="UTF-8" standalone="no"?>
<svg
   xmlns:dc="http://purl.org/dc/elements/1.1/"
   xmlns:cc="http://creativecommons.org/ns#"
   xmlns:rdf="http://www.w3.org/1999/02/22-rdf-syntax-ns#"
   xmlns:svg="http://www.w3.org/2000/svg"
   xmlns="http://www.w3.org/2000/svg"
   xmlns:sodipodi="http://sodipodi.sourceforge.net/DTD/sodipodi-0.dtd"
   xmlns:inkscape="http://www.inkscape.org/namespaces/inkscape"
   width="48"
   height="48"
   version="1.1"
   id="svg71"
   sodipodi:docname="action-overlays.svg"
   inkscape:version="0.92.4 5da689c313, 2019-01-14">
  <metadata
     id="metadata77">
    <rdf:RDF>
      <cc:Work
         rdf:about="">
        <dc:format>image/svg+xml</dc:format>
        <dc:type
           rdf:resource="http://purl.org/dc/dcmitype/StillImage" />
      </cc:Work>
    </rdf:RDF>
  </metadata>
  <defs
     id="defs75" />
  <sodipodi:namedview
     pagecolor="#ffffff"
     bordercolor="#666666"
     borderopacity="1"
     objecttolerance="10"
     gridtolerance="10"
     guidetolerance="10"
     inkscape:pageopacity="0"
     inkscape:pageshadow="2"
     inkscape:window-width="1366"
     inkscape:window-height="710"
     id="namedview73"
     showgrid="true"
     inkscape:zoom="4.9166667"
     inkscape:cx="41.405209"
     inkscape:cy="20.308899"
     inkscape:window-x="0"
     inkscape:window-y="32"
     inkscape:window-maximized="1"
     inkscape:current-layer="svg71">
    <inkscape:grid
       type="xygrid"
       id="grid850" />
  </sodipodi:namedview>
  <g
     id="remove-normal"
     transform="matrix(1.375,0,0,1.375,0,-24.75)">
    <rect
       style="opacity:0.00100002"
       width="16"
       height="16"
       x="0"
       y="34"
       id="rect2" />
    <path
       style="fill:#1a1a1a;fill-opacity:1;stroke-width:0.83116883"
       d="M 13.818182,41.999999 A 5.8181817,5.8181817 0 0 1 8,47.81818 5.8181817,5.8181817 0 0 1 2.1818182,41.999999 5.8181817,5.8181817 0 0 1 8,36.181817 a 5.8181817,5.8181817 0 0 1 5.818182,5.818182 z"
       id="path4"
       inkscape:connector-curvature="0" />
    <rect
       style="fill:#ffffff;stroke-width:0.72727275"
       width="1.4545455"
       height="5.818182"
       x="41.272728"
       y="-10.909091"
       transform="rotate(90)"
       id="rect6" />
  </g>
  <g
     id="add-normal"
     transform="matrix(1.375,0,0,1.375,0,-24.75)">
    <rect
       style="opacity:0.00100002"
       width="16"
       height="16"
       x="0"
       y="18"
       id="rect9" />
    <path
       style="fill:#1a1a1a;fill-opacity:1;stroke-width:0.83116883"
       d="M 13.818182,25.999999 A 5.8181817,5.8181817 0 0 1 8,31.81818 5.8181817,5.8181817 0 0 1 2.1818182,25.999999 5.8181817,5.8181817 0 0 1 8,20.181817 a 5.8181817,5.8181817 0 0 1 5.818182,5.818182 z"
       id="path11"
       inkscape:connector-curvature="0" />
    <path
       style="fill:#ffffff;stroke-width:1"
       d="M 10 7 L 10 10 L 7 10 L 7 12 L 10 12 L 10 15 L 12 15 L 12 12 L 15 12 L 15 10 L 12 10 L 12 7 L 10 7 z "
       transform="matrix(0.72727273,0,0,0.72727273,0,18)"
       id="rect13" />
  </g>
  <g
     id="open-normal"
     transform="matrix(1.375,0,0,1.375,0,-24.75)">
    <rect
       style="opacity:0.00100002"
       width="16"
       height="16"
       x="0"
       y="50"
       id="rect18" />
    <path
       style="fill:#1a1a1a;fill-opacity:1;stroke-width:0.83116883"
       d="M 13.818182,57.999999 A 5.8181817,5.8181817 0 0 1 8,63.81818 5.8181817,5.8181817 0 0 1 2.1818182,57.999999 5.8181817,5.8181817 0 0 1 8,52.181817 a 5.8181817,5.8181817 0 0 1 5.818182,5.818182 z"
       id="path20"
       inkscape:connector-curvature="0" />
    <path
       style="fill:#ffffff;stroke-width:0.66452283"
       d="m 7.9999999,55.818182 1.4545454,1.818182 1.4545457,1.818181 H 7.9999997 5.0909089 l 1.4545454,-1.818181 z"
       id="path22"
       inkscape:connector-curvature="0" />
  </g>
  <g
     transform="matrix(1.375,0,0,1.375,23,-24.75)"
     id="remove-hover">
    <rect
       id="rect853"
       y="34"
       x="0"
       height="16"
       width="16"
       style="opacity:0.00100002" />
    <path
       inkscape:connector-curvature="0"
       id="path855"
       d="M 13.818182,41.999999 A 5.8181817,5.8181817 0 0 1 8,47.81818 5.8181817,5.8181817 0 0 1 2.1818182,41.999999 5.8181817,5.8181817 0 0 1 8,36.181817 a 5.8181817,5.8181817 0 0 1 5.818182,5.818182 z"
       style="fill:#333333;fill-opacity:1;stroke-width:0.83116883" />
    <rect
       id="rect857"
       transform="rotate(90)"
       y="-10.909091"
       x="41.272728"
       height="5.818182"
       width="1.4545455"
       style="fill:#ffffff;stroke-width:0.72727275" />
  </g>
  <g
     transform="matrix(1.375,0,0,1.375,23,-24.75)"
     id="add-hover">
    <rect
       id="rect861"
       y="18"
       x="0"
       height="16"
       width="16"
       style="opacity:0.00100002" />
    <path
       inkscape:connector-curvature="0"
       id="path863"
       d="M 13.818182,25.999999 A 5.8181817,5.8181817 0 0 1 8,31.81818 5.8181817,5.8181817 0 0 1 2.1818182,25.999999 5.8181817,5.8181817 0 0 1 8,20.181817 a 5.8181817,5.8181817 0 0 1 5.818182,5.818182 z"
       style="fill:#333333;fill-opacity:1;stroke-width:0.83116883" />
    <path
       id="path865"
       transform="matrix(0.72727273,0,0,0.72727273,0,18)"
       d="m 10,7 v 3 H 7 v 2 h 3 v 3 h 2 v -3 h 3 V 10 H 12 V 7 Z"
       style="fill:#ffffff;stroke-width:1"
       inkscape:connector-curvature="0" />
  </g>
  <g
     transform="matrix(1.375,0,0,1.375,23,-24.75)"
     id="open-hover">
    <rect
       id="rect869"
       y="50"
       x="0"
       height="16"
       width="16"
       style="opacity:0.00100002" />
    <path
       inkscape:connector-curvature="0"
       id="path871"
       d="M 13.818182,57.999999 A 5.8181817,5.8181817 0 0 1 8,63.81818 5.8181817,5.8181817 0 0 1 2.1818182,57.999999 5.8181817,5.8181817 0 0 1 8,52.181817 a 5.8181817,5.8181817 0 0 1 5.818182,5.818182 z"
       style="fill:#333333;fill-opacity:1;stroke-width:0.83116883" />
    <path
       inkscape:connector-curvature="0"
       id="path873"
       d="m 7.9999999,55.818182 1.4545454,1.818182 1.4545457,1.818181 H 7.9999997 5.0909089 l 1.4545454,-1.818181 z"
       style="fill:#ffffff;stroke-width:0.66452283" />
  </g>
  <g
     id="remove-pressed"
     transform="matrix(1.375,0,0,1.375,48,-24.75)">
    <rect
       style="opacity:0.00100002"
       width="16"
       height="16"
       x="0"
       y="34"
       id="rect877" />
    <path
       style="fill:#4285f4;fill-opacity:1;stroke-width:0.83116883"
       d="M 13.818182,41.999999 A 5.8181817,5.8181817 0 0 1 8,47.81818 5.8181817,5.8181817 0 0 1 2.1818182,41.999999 5.8181817,5.8181817 0 0 1 8,36.181817 a 5.8181817,5.8181817 0 0 1 5.818182,5.818182 z"
       id="path879"
       inkscape:connector-curvature="0" />
    <rect
       style="fill:#ffffff;stroke-width:0.72727275"
       width="1.4545455"
       height="5.818182"
       x="41.272728"
       y="-10.909091"
       transform="rotate(90)"
       id="rect881" />
  </g>
  <g
     id="add-pressed"
     transform="matrix(1.375,0,0,1.375,48,-24.75)">
    <rect
       style="opacity:0.00100002"
       width="16"
       height="16"
       x="0"
       y="18"
       id="rect885" />
    <path
       style="fill:#4285f4;fill-opacity:1;stroke-width:0.83116883"
       d="M 13.818182,25.999999 A 5.8181817,5.8181817 0 0 1 8,31.81818 5.8181817,5.8181817 0 0 1 2.1818182,25.999999 5.8181817,5.8181817 0 0 1 8,20.181817 a 5.8181817,5.8181817 0 0 1 5.818182,5.818182 z"
       id="path887"
       inkscape:connector-curvature="0" />
    <path
       inkscape:connector-curvature="0"
       style="fill:#ffffff;stroke-width:1"
       d="m 10,7 v 3 H 7 v 2 h 3 v 3 h 2 v -3 h 3 V 10 H 12 V 7 Z"
       transform="matrix(0.72727273,0,0,0.72727273,0,18)"
       id="path889" />
  </g>
  <g
     id="open-pressed"
     transform="matrix(1.375,0,0,1.375,48,-24.75)">
    <rect
       style="opacity:0.00100002"
       width="16"
       height="16"
       x="0"
       y="50"
       id="rect893" />
    <path
       style="fill:#4285f4;fill-opacity:1;stroke-width:0.83116883"
       d="M 13.818182,57.999999 A 5.8181817,5.8181817 0 0 1 8,63.81818 5.8181817,5.8181817 0 0 1 2.1818182,57.999999 5.8181817,5.8181817 0 0 1 8,52.181817 a 5.8181817,5.8181817 0 0 1 5.818182,5.818182 z"
       id="path895"
       inkscape:connector-curvature="0" />
    <path
       style="fill:#ffffff;stroke-width:0.66452283"
       d="m 7.9999999,55.818182 1.4545454,1.818182 1.4545457,1.818181 H 7.9999997 5.0909089 l 1.4545454,-1.818181 z"
       id="path897"
       inkscape:connector-curvature="0" />
  </g>
</svg>

<svg width="72" height="72" version="1.1" xmlns="http://www.w3.org/2000/svg">
 <g id="remove-normal" transform="matrix(1.375,0,0,1.375,0,-24.75)">
  <rect y="34" width="16" height="16" opacity=".001"/>
  <path d="m13.818 42a5.8182 5.8182 0 0 1-5.8182 5.8182 5.8182 5.8182 0 0 1-5.8182-5.8182 5.8182 5.8182 0 0 1 5.8182-5.8182 5.8182 5.8182 0 0 1 5.8182 5.8182z" fill="#1a1a1a" stroke-width=".83117"/>
  <rect transform="rotate(90)" x="41.273" y="-10.909" width="1.4545" height="5.8182" fill="#ffffff" stroke-width=".72727"/>
 </g>
 <g id="add-normal" transform="matrix(1.375,0,0,1.375,0,-24.75)">
  <rect y="18" width="16" height="16" opacity=".001"/>
  <path d="m13.818 26a5.8182 5.8182 0 0 1-5.8182 5.8182 5.8182 5.8182 0 0 1-5.8182-5.8182 5.8182 5.8182 0 0 1 5.8182-5.8182 5.8182 5.8182 0 0 1 5.8182 5.8182z" fill="#1a1a1a" stroke-width=".83117"/>
  <path transform="matrix(.72727 0 0 .72727 0 18)" d="m10 7v3h-3v2h3v3h2v-3h3v-2h-3v-3z" fill="#ffffff"/>
 </g>
 <g id="open-normal" transform="matrix(1.375,0,0,1.375,0,-24.75)">
  <rect y="50" width="16" height="16" opacity=".001"/>
  <path d="m13.818 58a5.8182 5.8182 0 0 1-5.8182 5.8182 5.8182 5.8182 0 0 1-5.8182-5.8182 5.8182 5.8182 0 0 1 5.8182-5.8182 5.8182 5.8182 0 0 1 5.8182 5.8182z" fill="#1a1a1a" stroke-width=".83117"/>
  <path d="m8 55.818 2.9091 3.6364h-5.8182l1.4545-1.8182z" fill="#ffffff" stroke-width=".66452"/>
 </g>
 <g id="remove-hover" transform="matrix(1.375,0,0,1.375,23,-24.75)">
  <rect y="34" width="16" height="16" opacity=".001"/>
  <path d="m13.818 42a5.8182 5.8182 0 0 1-5.8182 5.8182 5.8182 5.8182 0 0 1-5.8182-5.8182 5.8182 5.8182 0 0 1 5.8182-5.8182 5.8182 5.8182 0 0 1 5.8182 5.8182z" fill="#333333" stroke-width=".83117"/>
  <rect transform="rotate(90)" x="41.273" y="-10.909" width="1.4545" height="5.8182" fill="#ffffff" stroke-width=".72727"/>
 </g>
 <g id="add-hover" transform="matrix(1.375,0,0,1.375,23,-24.75)">
  <rect y="18" width="16" height="16" opacity=".001"/>
  <path d="m13.818 26a5.8182 5.8182 0 0 1-5.8182 5.8182 5.8182 5.8182 0 0 1-5.8182-5.8182 5.8182 5.8182 0 0 1 5.8182-5.8182 5.8182 5.8182 0 0 1 5.8182 5.8182z" fill="#333333" stroke-width=".83117"/>
  <path transform="matrix(.72727 0 0 .72727 0 18)" d="m10 7v3h-3v2h3v3h2v-3h3v-2h-3v-3z" fill="#ffffff"/>
 </g>
 <g id="open-hover" transform="matrix(1.375,0,0,1.375,23,-24.75)">
  <rect y="50" width="16" height="16" opacity=".001"/>
  <path d="m13.818 58a5.8182 5.8182 0 0 1-5.8182 5.8182 5.8182 5.8182 0 0 1-5.8182-5.8182 5.8182 5.8182 0 0 1 5.8182-5.8182 5.8182 5.8182 0 0 1 5.8182 5.8182z" fill="#333333" stroke-width=".83117"/>
  <path d="m8 55.818 2.9091 3.6364h-5.8182l1.4545-1.8182z" fill="#ffffff" stroke-width=".66452"/>
 </g>
 <g id="remove-pressed" transform="matrix(1.375,0,0,1.375,48,-24.75)">
  <rect y="34" width="16" height="16" opacity=".001"/>
  <path d="m13.818 42a5.8182 5.8182 0 0 1-5.8182 5.8182 5.8182 5.8182 0 0 1-5.8182-5.8182 5.8182 5.8182 0 0 1 5.8182-5.8182 5.8182 5.8182 0 0 1 5.8182 5.8182z" fill="#4285f4" stroke-width=".83117"/>
  <rect transform="rotate(90)" x="41.273" y="-10.909" width="1.4545" height="5.8182" fill="#ffffff" stroke-width=".72727"/>
 </g>
 <g id="add-pressed" transform="matrix(1.375,0,0,1.375,48,-24.75)">
  <rect y="18" width="16" height="16" opacity=".001"/>
  <path d="m13.818 26a5.8182 5.8182 0 0 1-5.8182 5.8182 5.8182 5.8182 0 0 1-5.8182-5.8182 5.8182 5.8182 0 0 1 5.8182-5.8182 5.8182 5.8182 0 0 1 5.8182 5.8182z" fill="#4285f4" stroke-width=".83117"/>
  <path transform="matrix(.72727 0 0 .72727 0 18)" d="m10 7v3h-3v2h3v3h2v-3h3v-2h-3v-3z" fill="#ffffff"/>
 </g>
 <g id="open-pressed" transform="matrix(1.375,0,0,1.375,48,-24.75)">
  <rect y="50" width="16" height="16" opacity=".001"/>
  <path d="m13.818 58a5.8182 5.8182 0 0 1-5.8182 5.8182 5.8182 5.8182 0 0 1-5.8182-5.8182 5.8182 5.8182 0 0 1 5.8182-5.8182 5.8182 5.8182 0 0 1 5.8182 5.8182z" fill="#4285f4" stroke-width=".83117"/>
  <path d="m8 55.818 2.9091 3.6364h-5.8182l1.4545-1.8182z" fill="#ffffff" stroke-width=".66452"/>
 </g>
</svg>
